X: 468
T: Mai Cai
L: 1/8
M: 3/4
K: F
d d d c/ d/ [I:setbarnb 1]| 
f Ac4 | 
[M:2/4]d d/ c/ A c | 
[M:3/4]d AG4 | 
[M:2/4]G G/ F/ G A | 
c Ac2 | 
F D/ D/C2 | 
c2A3/ c/ | 
GF2D | 
C4 |]

@@@ Tune index: 9342
